src/assets/icons-components/heart.svg

<svg width="60" height="60" viewBox="0 0 60 60" fill="none" xmlns="http://www.w3.org/2000/svg">
<rect x="0.5" y="0.5" width="59" height="59" stroke="#C3C2C1"/>
<path fill-rule="evenodd" clip-rule="evenodd" d="M29.9419 22.4082C30.0042 22.3267 30.0709 22.2416 30.1419 22.1536C30.6542 21.5178 31.4057 20.7084 32.3375 20.0698C33.2688 19.4316 34.4271 18.9328 35.73 19.0075C37.0497 19.0832 38.3998 19.7402 39.7109 21.1833L39.7239 21.1976L39.7362 21.2126C41.4848 23.3513 41.7267 25.6454 41.0923 27.8194C40.4728 29.9428 39.0283 31.9303 37.4471 33.6082C35.8563 35.2963 34.0721 36.7284 32.6934 37.7347C32.0024 38.2391 31.4093 38.6394 30.9878 38.9143C30.777 39.0519 30.6089 39.1581 30.4926 39.2305C30.4345 39.2668 30.3893 39.2945 30.3582 39.3135L30.3223 39.3353L30.3125 39.3411L30.3098 39.3428L30.3089 39.3433C30.3086 39.3435 30.3084 39.3436 29.9419 38.6952C29.5755 39.3436 29.5753 39.3435 29.575 39.3433L29.5741 39.3428L29.5713 39.3411L29.5616 39.3353L29.5257 39.3135C29.4946 39.2945 29.4494 39.2668 29.3913 39.2305C29.275 39.1581 29.1069 39.0518 28.8961 38.9143C28.4746 38.6394 27.8815 38.2391 27.1904 37.7347C25.8117 36.7283 24.0275 35.2962 22.4366 33.6081C20.8554 31.9302 19.4109 29.9427 18.7914 27.8193C18.157 25.6453 18.3989 23.3512 20.1474 21.2125L20.1597 21.1975L20.1728 21.1831C21.4839 19.7401 22.834 19.0831 24.1537 19.0074C25.4566 18.9327 26.615 19.4315 27.5463 20.0698C28.4781 20.7083 29.2296 21.5178 29.742 22.1536C29.8129 22.2416 29.8796 22.3267 29.9419 22.4082ZM29.9419 38.6952L29.575 39.3433L29.9419 39.5627L30.3089 39.3433L29.9419 38.6952ZM29.9419 37.8184C30.0194 37.769 30.1081 37.712 30.2068 37.6476C30.6105 37.3843 31.1822 36.9985 31.8494 36.5114C33.1873 35.5349 34.8939 34.1624 36.4 32.5642C37.9157 30.9558 39.1742 29.1751 39.6956 27.3882C40.2007 25.6571 40.0239 23.9041 38.6323 22.193C37.5242 20.9788 36.5121 20.5547 35.6489 20.5052C34.7654 20.4545 33.9177 20.7893 33.1461 21.3181C32.3749 21.8467 31.7264 22.5378 31.2646 23.1109C31.0357 23.3949 30.8574 23.6441 30.7373 23.8205C30.6773 23.9086 30.6322 23.9782 30.6027 24.0245C30.588 24.0476 30.5773 24.0649 30.5706 24.0757L30.5637 24.087L30.563 24.0882L29.9419 25.1267L29.3213 24.0889L29.3202 24.087L29.3132 24.0757C29.3066 24.0649 29.2958 24.0476 29.2811 24.0245C29.2517 23.9782 29.2065 23.9086 29.1466 23.8205C29.0265 23.6441 28.8481 23.3949 28.6192 23.1109C28.1574 22.5378 27.5089 21.8466 26.7377 21.3181C25.966 20.7892 25.1183 20.4545 24.2348 20.5051C23.3716 20.5546 22.3595 20.9786 21.2514 22.1929C19.8597 23.904 19.683 25.657 20.1882 27.3881C20.7095 29.175 21.9681 30.9557 23.4838 32.5641C24.9899 34.1624 26.6965 35.5348 28.0344 36.5114C28.7017 36.9985 29.2734 37.3843 29.677 37.6476C29.7758 37.712 29.8645 37.769 29.9419 37.8184Z" fill="#2E2B26"/>
</svg>

<svg width="60" height="60" fill="none" xmlns="http://www.w3.org/2000/svg"><path stroke="#C3C2C1" d="M.5.5h59v59H.5z"/><path fill-rule="evenodd" clip-rule="evenodd" d="M29.942 22.408c.062-.081.129-.166.2-.254.512-.636 1.264-1.446 2.195-2.084.932-.638 2.09-1.137 3.393-1.063 1.32.076 2.67.733 3.98 2.176l.014.015.012.015c1.749 2.138 1.99 4.432 1.356 6.606-.62 2.124-2.064 4.111-3.645 5.79-1.59 1.687-3.375 3.12-4.754 4.126a39.779 39.779 0 0 1-2.2 1.495l-.135.084-.036.021-.01.006-.002.002h-.001l-.367-.648c-.366.649-.367.648-.367.648l-.004-.002-.01-.006-.035-.022a28.074 28.074 0 0 1-.63-.4 39.835 39.835 0 0 1-1.706-1.178c-1.378-1.007-3.163-2.439-4.753-4.127-1.582-1.678-3.026-3.665-3.646-5.789-.634-2.174-.392-4.468 1.356-6.607l.013-.014.013-.015c1.31-1.443 2.661-2.1 3.98-2.176 1.304-.074 2.462.424 3.393 1.063.932.638 1.684 1.448 2.196 2.084.07.088.138.173.2.254Zm0 16.287-.367.648.367.22.367-.22-.367-.648Zm0-.877.265-.17c.403-.264.975-.65 1.642-1.137 1.338-.976 3.045-2.349 4.551-3.947 1.516-1.608 2.774-3.389 3.296-5.176.505-1.73.328-3.484-1.064-5.195-1.108-1.214-2.12-1.638-2.983-1.688-.884-.05-1.731.284-2.503.813-.771.529-1.42 1.22-1.881 1.793a11.073 11.073 0 0 0-.662.913c-.015.024-.026.04-.032.052l-.007.011-.001.001-.621 1.039-.62-1.038-.002-.002-.007-.011a11.08 11.08 0 0 0-.694-.965c-.462-.573-1.11-1.264-1.881-1.793-.772-.529-1.62-.864-2.503-.813-.863.05-1.875.474-2.984 1.688-1.391 1.711-1.568 3.464-1.063 5.195.521 1.787 1.78 3.568 3.296 5.176 1.506 1.598 3.212 2.97 4.55 3.947a38.41 38.41 0 0 0 1.908 1.307Z" fill="#2E2B26"/></svg>
